Simply-Orange-Circles/scalable/apps/plasma-mobile-phone.svg

<svg xmlns="http://www.w3.org/2000/svg" width="48" height="48" viewBox="0 0 12.7 12.7"><path d="M6.35.06a6.29 6.29 0 0 0-6.29 6.3 6.29 6.29 0 0 0 6.3 6.28 6.29 6.29 0 0 0 6.28-6.29A6.29 6.29 0 0 0 6.35.06zM6.33 1a5.4 5.4 0 0 1 5.4 5.4 5.4 5.4 0 0 1-5.4 5.41 5.4 5.4 0 0 1-5.4-5.4A5.4 5.4 0 0 1 6.33 1zm.02 2.48c-1.66 0-3.08.24-3.75.58-.46.12-.8.5-.8.95 0 .24.1.76.26.93.2.22.51.13.86.06.6-.13 1.12-.44 1.12-1a.9.9 0 0 0-.1-.39c.65-.36.7-.25 2.41-.25 1.71 0 1.75-.1 2.4.25a.9.9 0 0 0-.09.4c0 .55.52.86 1.12 1 .35.06.65.15.86-.07.16-.17.26-.69.26-.93 0-.45-.34-.83-.8-.95a9.65 9.65 0 0 0-3.75-.58zm0 1.13c-1.2 0-2.14.3-2.14.3S3.85 6 3.72 7.8v-.07c-.03.36-.04.74-.04 1.15 0 0-.03.33.33.33h4.68c.35 0 .33-.33.33-.33a17.5 17.5 0 0 0-.04-1.08c-.13-1.8-.49-2.9-.49-2.9s-.94-.3-2.14-.3zm0 .61c.83 0 1.56.46 1.64 1.08.06.41-.18.8-.6 1.04l-.46-.6-.1.02.13.76c-.18.05-.4.08-.61.08-1 0-1.74-.61-1.64-1.3.08-.62.81-1.08 1.64-1.08zm0 .48a.75.58 0 0 0-.74.58.75.58 0 0 0 .75.58.75.58 0 0 0 .74-.58.75.58 0 0 0-.74-.58zm2.56 1.24zm-5.12 0zm5.14.16z" fill="#ff7f2a"/></svg>

<?xml version="1.0" encoding="UTF-8" standalone="no"?>
<svg
   xmlns:dc="http://purl.org/dc/elements/1.1/"
   xmlns:cc="http://creativecommons.org/ns#"
   xmlns:rdf="http://www.w3.org/1999/02/22-rdf-syntax-ns#"
   xmlns:svg="http://www.w3.org/2000/svg"
   xmlns="http://www.w3.org/2000/svg"
   xmlns:sodipodi="http://sodipodi.sourceforge.net/DTD/sodipodi-0.dtd"
   xmlns:inkscape="http://www.inkscape.org/namespaces/inkscape"
   width="48"
   height="48"
   viewBox="0 0 12.7 12.7"
   version="1.1"
   id="svg4"
   sodipodi:docname="plasma-mobile-phone.svg"
   inkscape:version="0.92.4 (5da689c313, 2019-01-14)">
  <metadata
     id="metadata10">
    <rdf:RDF>
      <cc:Work
         rdf:about="">
        <dc:format>image/svg+xml</dc:format>
        <dc:type
           rdf:resource="http://purl.org/dc/dcmitype/StillImage" />
        <dc:title></dc:title>
      </cc:Work>
    </rdf:RDF>
  </metadata>
  <defs
     id="defs8" />
  <sodipodi:namedview
     pagecolor="#ffffff"
     bordercolor="#666666"
     borderopacity="1"
     objecttolerance="10"
     gridtolerance="10"
     guidetolerance="10"
     inkscape:pageopacity="0"
     inkscape:pageshadow="2"
     inkscape:window-width="1087"
     inkscape:window-height="480"
     id="namedview6"
     showgrid="false"
     inkscape:zoom="4.9166667"
     inkscape:cx="2.1355932"
     inkscape:cy="24"
     inkscape:window-x="0"
     inkscape:window-y="25"
     inkscape:window-maximized="0"
     inkscape:current-layer="svg4" />
  <path
     d="M 6.35,0.06 A 6.29,6.29 0 0 0 0.06,6.36 6.29,6.29 0 0 0 6.36,12.64 6.29,6.29 0 0 0 12.64,6.35 6.29,6.29 0 0 0 6.35,0.06 Z M 6.33,1 a 5.4,5.4 0 0 1 5.4,5.4 5.4,5.4 0 0 1 -5.4,5.41 A 5.4,5.4 0 0 1 0.93,6.41 5.4,5.4 0 0 1 6.33,1 Z M 6.35,3.48 C 4.69,3.48 3.27,3.72 2.6,4.06 2.14,4.18 1.8,4.56 1.8,5.01 1.8,5.25 1.9,5.77 2.06,5.94 2.26,6.16 2.57,6.07 2.92,6 3.52,5.87 4.04,5.56 4.04,5 A 0.9,0.9 0 0 0 3.94,4.61 c 0.65,-0.36 0.7,-0.25 2.41,-0.25 1.71,0 1.75,-0.1 2.4,0.25 a 0.9,0.9 0 0 0 -0.09,0.4 c 0,0.55 0.52,0.86 1.12,1 0.35,0.06 0.65,0.15 0.86,-0.07 C 10.8,5.77 10.9,5.25 10.9,5.01 10.9,4.56 10.56,4.18 10.1,4.06 9.43,3.72 8,3.48 6.35,3.48 Z m 0,1.13 c -1.2,0 -2.14,0.3 -2.14,0.3 0,0 -0.36,1.09 -0.49,2.89 V 7.73 C 3.69,8.09 3.68,8.47 3.68,8.88 c 0,0 -0.03,0.33 0.33,0.33 h 4.68 c 0.35,0 0.33,-0.33 0.33,-0.33 A 17.5,17.5 0 0 0 8.98,7.8 C 8.85,6 8.49,4.9 8.49,4.9 8.49,4.9 7.55,4.6 6.35,4.6 Z m 0,0.61 c 0.83,0 1.56,0.46 1.64,1.08 0.06,0.41 -0.18,0.8 -0.6,1.04 L 6.93,6.74 6.83,6.76 6.96,7.52 C 6.78,7.57 6.56,7.6 6.35,7.6 5.35,7.6 4.61,6.99 4.71,6.3 4.79,5.68 5.52,5.22 6.35,5.22 Z m 0,0.48 A 0.75,0.58 0 0 0 5.61,6.28 0.75,0.58 0 0 0 6.36,6.86 0.75,0.58 0 0 0 7.1,6.28 0.75,0.58 0 0 0 6.36,5.7 Z m 2.56,1.24 z m -5.12,0 z M 8.93,7.1 Z"
     id="path2"
     inkscape:connector-curvature="0"
     style="fill:#ff7f2a" />
</svg>
